X: 19
M: C
L: 1/8
K: C
u(AB) |: k(vc<d) ({c}BA) k(c<d) ({c}BA) | {c}B2 (AG) (c<d) ({c}BA) | (c<d) ({c}BA) e2 ","y(AB) |
(vc<d) ({c}BA) (c<d) ({c}BA) | {c}B2 (AG) A2 (GE) | (DE)GA ({c}BA)Bc | (dc)BA ue2 ","yAB |
vA2{g}Ha2","y {f}e2dc | {c}B2AG A2{g}Ha2","y | {f}e2dc e2AB |  A2 {g}Ha2","y {f}e2dc |
(u{c}BA)BG A2","yu(GE) | (vDE)GA ({c}BA)Bc |1 (vdc)BA ue2vAuB :|["last" (dc)BA e2HA2 |]
a Northmavin fiddler \"osed ta walk to Busta Hoose in Deltng an
play him ta da Laird on Yule moarin.  Some years later, whin I
printed in Hibbert's an anidder een ida Midbrake Papers (in the
Museum of Antiquities, Edinburgh).  Whin I visited da late John
an caaed him "Da Day o' Dawye."  He telt me dat ida aulden days
da fiddler \"osed ta geng aroond da hooses playin him first think
Yule moarin.  In papa Stour, he wis \"owed ta lead da sword
dancers onto da floor fir da "Papa Stour Sword Dance".  Da
version here is da wye I play him.  It is my opinion dat it is
da auldest fiddle t\"un we hae, an dat he is of Norse extraction.


